assets/svg/app/snowflake.svg

<svg width="28" height="32" viewBox="0 0 28 32" fill="none" xmlns="http://www.w3.org/2000/svg">
<path d="M13.9641 4.50822e-05C14.1754 4.50822e-05 14.378 0.0839733 14.5274 0.233366C14.6768 0.38276 14.7607 0.58538 14.7607 0.796654V6.25427L16.7946 4.22885C16.8686 4.1548 16.9564 4.09605 17.0531 4.05597C17.1498 4.01589 17.2535 3.99526 17.3582 3.99526C17.4628 3.99526 17.5665 4.01589 17.6632 4.05597C17.7599 4.09605 17.8477 4.1548 17.9217 4.22885C17.9968 4.30225 18.0565 4.38992 18.0972 4.4867C18.1379 4.58347 18.1589 4.68741 18.1589 4.79241C18.1589 4.89741 18.1379 5.00135 18.0972 5.09813C18.0565 5.1949 17.9968 5.28257 17.9217 5.35597L14.7607 8.50851V14.5932L20.0319 11.5509L21.1929 7.23732C21.2202 7.13605 21.2671 7.04114 21.3311 6.95801C21.395 6.87488 21.4747 6.80516 21.5656 6.75283C21.6565 6.70049 21.7568 6.66658 21.8608 6.65301C21.9648 6.63945 22.0705 6.6465 22.1717 6.67376C22.273 6.70103 22.3679 6.74798 22.451 6.81192C22.5342 6.87587 22.6039 6.95556 22.6562 7.04645C22.7086 7.13734 22.7425 7.23765 22.756 7.34165C22.7696 7.44565 22.7625 7.5513 22.7353 7.65258L21.998 10.4238L26.7268 7.69495C26.9111 7.58931 27.1298 7.56122 27.3348 7.61684C27.5399 7.67247 27.7144 7.80726 27.82 7.99156C27.9257 8.17586 27.9538 8.39458 27.8981 8.5996C27.8425 8.80462 27.7077 8.97914 27.5234 9.08478L22.7946 11.8136L25.5658 12.5594C25.6671 12.5866 25.762 12.6336 25.8451 12.6975C25.9282 12.7615 25.998 12.8411 26.0503 12.932C26.1026 13.0229 26.1365 13.1232 26.1501 13.2272C26.1637 13.3312 26.1566 13.4369 26.1293 13.5382C26.1021 13.6394 26.0551 13.7343 25.9912 13.8175C25.9272 13.9006 25.8475 13.9703 25.7567 14.0227C25.6658 14.075 25.5655 14.1089 25.4615 14.1225C25.3575 14.136 25.2518 14.129 25.1505 14.1017L20.837 12.9492L15.5658 15.9915L20.837 19.0339L25.1505 17.8814C25.3384 17.8295 25.5387 17.8483 25.7136 17.9342C25.8885 18.0201 26.0259 18.1671 26.0997 18.3475V18.4407C26.1403 18.6251 26.1182 18.8178 26.0368 18.9883C25.9555 19.1587 25.8195 19.297 25.6505 19.3814H25.5658L22.7946 20.1271L27.5234 22.8983C27.7077 23.0028 27.843 23.1763 27.8994 23.3805C27.9558 23.5847 27.9288 23.803 27.8243 23.9873C27.7725 24.0786 27.7033 24.1587 27.6206 24.2232C27.5378 24.2877 27.4432 24.3353 27.3421 24.3633C27.1379 24.4197 26.9196 24.3927 26.7353 24.2881L22.0065 21.5593L22.7438 24.3305C22.8047 24.524 22.7895 24.7334 22.7013 24.9161C22.6131 25.0988 22.4586 25.2409 22.2692 25.3136H22.1675C21.9786 25.3668 21.7766 25.3477 21.6011 25.26C21.4255 25.1722 21.2891 25.0221 21.2183 24.839V24.7542L20.0573 20.4407L14.7861 17.3899V23.4831L17.9472 26.6356C18.0774 26.7781 18.1551 26.9607 18.1675 27.1533C18.1798 27.346 18.126 27.537 18.015 27.6949L17.9472 27.7712C17.8112 27.9101 17.6287 27.9938 17.4347 28.0063C17.2407 28.0189 17.049 27.9593 16.8963 27.839L16.82 27.7712L14.7861 25.7458V31.2034C14.7861 31.4147 14.7022 31.6173 14.5528 31.7667C14.4034 31.9161 14.2008 32 13.9895 32C13.7783 32 13.5756 31.9161 13.4262 31.7667C13.2769 31.6173 13.1929 31.4147 13.1929 31.2034V25.7288L11.159 27.7542C11.0231 27.8931 10.8406 27.9769 10.6466 27.9894C10.4526 28.0019 10.2609 27.9423 10.1082 27.822L10.0319 27.7542C9.90166 27.6118 9.82394 27.4291 9.81161 27.2365C9.79929 27.0439 9.85309 26.8528 9.96412 26.6949L10.0319 26.6187L13.1929 23.4661V17.3729L7.92175 20.4237L6.76073 24.7373C6.70327 24.9143 6.58915 25.0674 6.43598 25.1731C6.28282 25.2788 6.09913 25.3311 5.91327 25.322H5.82005C5.63717 25.2744 5.4775 25.1626 5.37017 25.007C5.26283 24.8514 5.21497 24.6625 5.23531 24.4746V24.3814L5.97259 21.6102L1.20141 24.2797C1.11132 24.3333 1.01153 24.3685 0.907765 24.3835C0.804004 24.3984 0.698313 24.3928 0.596751 24.3668C0.495189 24.3408 0.399755 24.295 0.315918 24.2321C0.232081 24.1692 0.161491 24.0903 0.108196 24C0.0116088 23.8124 -0.0115186 23.5955 0.0433372 23.3918C0.098193 23.188 0.227086 23.0121 0.404806 22.8983L5.13361 20.1695L2.36243 19.4237C2.18544 19.3663 2.03229 19.2522 1.9266 19.099C1.82092 18.9458 1.76859 18.7621 1.77768 18.5763V18.4746C1.83665 18.2992 1.95141 18.1479 2.10443 18.0438C2.25746 17.9398 2.44034 17.8887 2.62514 17.8983H2.71836L7.03192 19.0509L12.3624 15.9915L7.09124 12.9492L2.77768 14.1017C2.67237 14.1573 2.55595 14.1885 2.43697 14.1931C2.31799 14.1978 2.19949 14.1757 2.09018 14.1285C1.98087 14.0813 1.88353 14.0102 1.80532 13.9204C1.72712 13.8306 1.67003 13.7244 1.63826 13.6097C1.6065 13.4949 1.60086 13.3745 1.62176 13.2573C1.64266 13.1401 1.68957 13.029 1.75905 12.9323C1.82852 12.8356 1.91879 12.7557 2.0232 12.6985C2.12762 12.6413 2.24354 12.6082 2.36243 12.6017L5.13361 11.856L0.404806 9.08478C0.220503 8.98027 0.0852664 8.80682 0.0288466 8.6026C-0.0275731 8.39837 -0.000554651 8.1801 0.103958 7.9958C0.208472 7.81149 0.381918 7.67626 0.586142 7.61984C0.790365 7.56342 1.00864 7.59044 1.19294 7.69495L5.92175 10.4238L5.18446 7.65258C5.12939 7.44805 5.15783 7.23002 5.26352 7.04645C5.36921 6.86289 5.54349 6.72883 5.74802 6.67376C5.95255 6.6187 6.17058 6.64714 6.35414 6.75283C6.5377 6.85851 6.67176 7.03279 6.72683 7.23732L7.87937 11.5509L13.159 14.6017V8.51698L9.99801 5.36444C9.85747 5.20872 9.77967 5.00641 9.77967 4.79665C9.77967 4.58688 9.85747 4.38457 9.99801 4.22885C10.072 4.1548 10.1598 4.09605 10.2565 4.05597C10.3532 4.01589 10.4569 3.99526 10.5616 3.99526C10.6662 3.99526 10.7699 4.01589 10.8666 4.05597C10.9633 4.09605 11.0511 4.1548 11.1251 4.22885L13.159 6.25427V0.796654C13.159 0.691325 13.1799 0.58704 13.2205 0.489835C13.261 0.392629 13.3205 0.304433 13.3953 0.230349C13.4702 0.156265 13.559 0.0977651 13.6567 0.0582337C13.7543 0.0187023 13.8588 -0.00107544 13.9641 4.50822e-05Z" fill="currentColor"/>
</svg>

<svg viewBox="0 0 28 32" fill="none" xmlns="http://www.w3.org/2000/svg">
    <path d="M13.964 0a.797.797 0 01.797.797v5.457l2.034-2.025a.797.797 0 011.127 0 .787.787 0 010 1.127L14.76 8.509v6.084l5.27-3.042 1.162-4.314a.798.798 0 011.542.416l-.737 2.77 4.729-2.728a.8.8 0 11.796 1.39l-4.728 2.729 2.77.745a.798.798 0 11-.415 1.543l-4.313-1.153-5.271 3.043 5.271 3.042 4.314-1.153a.796.796 0 01.949.466v.094a.848.848 0 01-.45.94h-.084l-2.771.746 4.728 2.771a.799.799 0 11-.788 1.39l-4.729-2.729.738 2.771a.797.797 0 01-.475.984h-.101a.789.789 0 01-.95-.475v-.085l-1.16-4.313-5.272-3.051v6.093l3.161 3.153a.848.848 0 01.068 1.059l-.068.076a.788.788 0 01-1.05.068l-.077-.068-2.034-2.025v5.457a.797.797 0 11-1.593 0V25.73l-2.034 2.025a.788.788 0 01-1.05.068l-.077-.068a.847.847 0 01-.068-1.06l.068-.075 3.16-3.153v-6.093l-5.27 3.05-1.161 4.314a.847.847 0 01-.848.585H5.82a.788.788 0 01-.585-.847v-.094l.738-2.77L1.2 24.28A.797.797 0 01.108 24a.847.847 0 01.297-1.102l4.729-2.729-2.772-.745a.847.847 0 01-.584-.848v-.101a.848.848 0 01.847-.577h.093l4.314 1.153 5.33-3.06-5.27-3.042-4.314 1.153a.795.795 0 11-.416-1.5l2.772-.746-4.73-2.771a.799.799 0 11.789-1.39l4.729 2.729-.738-2.771a.799.799 0 111.543-.416l1.152 4.314 5.28 3.05V8.518L9.998 5.364a.847.847 0 010-1.135.797.797 0 011.127 0l2.034 2.025V.797A.796.796 0 0113.964 0z" fill="currentColor"/>
</svg>
